images/advantages-icon-4.svg

<svg width="28" height="27" viewBox="0 0 28 27" fill="none" xmlns="http://www.w3.org/2000/svg">
<path d="M24.4073 10.6543C26.0238 10.6543 27.3341 11.9647 27.3341 13.5811C27.3341 15.1976 26.0238 16.508 24.4073 16.508C22.7909 16.508 21.4805 15.1976 21.4805 13.5811C21.4805 11.9647 22.7909 10.6543 24.4073 10.6543Z" fill="white"/>
<path d="M24.4073 21.0605C26.0238 21.0605 27.3341 22.3709 27.3341 23.9874C27.3341 25.6038 26.0238 26.9142 24.4073 26.9142C22.7909 26.9142 21.4805 25.6038 21.4805 23.9874C21.4805 22.3709 22.7909 21.0605 24.4073 21.0605Z" fill="white"/>
<path d="M24.4073 0.246094C26.0237 0.246094 27.3341 1.55649 27.3341 3.17299C27.3341 4.78939 26.0237 6.09979 24.4073 6.09979C22.7909 6.09979 21.4805 4.78939 21.4805 3.17299C21.4805 1.55649 22.7909 0.246094 24.4073 0.246094Z" fill="white"/>
<path d="M3.59379 10.6543C5.21029 10.6543 6.52059 11.9647 6.52059 13.5811C6.52059 15.1976 5.21029 16.508 3.59379 16.508C1.97739 16.508 0.666992 15.1976 0.666992 13.5811C0.666992 11.9647 1.97739 10.6543 3.59379 10.6543Z" fill="white"/>
<path d="M23.1059 12.6038C23.6392 12.6038 24.0815 13.0461 24.0815 13.5794C24.0815 14.1128 23.6392 14.555 23.1059 14.555H13.675V20.0835C13.675 22.1388 14.5465 23.0103 16.6018 23.0103H23.1059C23.6392 23.0103 24.0815 23.4526 24.0815 23.986C24.0815 24.5193 23.6392 24.9616 23.1059 24.9616H16.6018C13.4538 24.9616 11.7238 23.2315 11.7238 20.0835V14.555H4.89454C4.36114 14.555 3.91895 14.1128 3.91895 13.5794C3.91895 13.0461 4.36114 12.6038 4.89454 12.6038H11.7238L11.7237 7.07537C11.7237 3.92737 13.4538 2.19727 16.6018 2.19727H23.1059C23.6392 2.19727 24.0815 2.63956 24.0815 3.17286C24.0815 3.70616 23.6392 4.14847 23.1059 4.14847H16.6018C14.5465 4.14847 13.675 5.02007 13.675 7.07537V12.6038H23.1059Z" fill="white"/>
</svg>

<svg width="28" height="27" fill="none" xmlns="http://www.w3.org/2000/svg"><path d="M24.407 10.654a2.927 2.927 0 110 5.854 2.927 2.927 0 010-5.854zm0 10.406a2.927 2.927 0 110 5.854 2.927 2.927 0 010-5.854zm0-20.814a2.927 2.927 0 110 5.854 2.927 2.927 0 010-5.854zM3.594 10.654a2.927 2.927 0 110 5.854 2.927 2.927 0 010-5.854z" fill="#fff"/><path d="M23.106 12.604c.533 0 .975.442.975.975a.983.983 0 01-.975.976h-9.431v5.529c0 2.055.871 2.926 2.927 2.926h6.504c.533 0 .975.443.975.976a.983.983 0 01-.975.976h-6.504c-3.148 0-4.878-1.73-4.878-4.878v-5.529h-6.83a.983.983 0 01-.975-.976c0-.533.442-.975.976-.975h6.829V7.075c0-3.148 1.73-4.878 4.878-4.878h6.504c.533 0 .975.443.975.976a.983.983 0 01-.975.975h-6.504c-2.056 0-2.927.872-2.927 2.927v5.529h9.43z" fill="#fff"/></svg>
